icons/1_Primary/Del-One Federal Credit Union.svg

<svg width="1024" height="1024" viewBox="0 0 1024 1024" fill="none" xmlns="http://www.w3.org/2000/svg">
<g clip-path="url(#clip0_2_1977)">
<path d="M512 1024C794.77 1024 1024 794.77 1024 512C1024 229.23 794.77 0 512 0C229.23 0 0 229.23 0 512C0 794.77 229.23 1024 512 1024Z" fill="#96DFD3"/>
<path d="M512 247.52C455.882 247.853 401.314 265.971 356.14 299.27C372.91 332.59 381.14 372.78 372.61 391.8C355.27 391.04 331.04 367.6 313.61 338.4C300.591 353.014 289.235 369.029 279.75 386.15C298.4 385.07 321.47 394.15 344.06 414.23C370.84 438.01 390.74 471.65 386.91 491.73C366.97 497.52 330.91 481.51 304.09 457.73C284.35 440.22 273.09 421.48 270 404.81C255.792 436.581 248.021 470.853 247.137 505.646C246.253 540.438 252.273 575.061 264.849 607.513C277.425 639.965 296.309 669.603 320.407 694.713C344.506 719.824 373.343 739.91 405.25 753.81C420.49 723.9 420.5 612.81 413.81 587.28C402.28 543.28 384.72 533.61 355.36 517.19C375.29 510.19 406.53 522.71 406.53 522.71C406.53 522.71 416.36 495.8 442.53 485.63C420.3 536.78 449.81 602.77 449.81 602.77C449.81 602.77 489.13 556.65 486.81 520.03C504.65 534.91 500.43 556.219 500.43 556.219C500.43 556.219 515.92 548.06 539.02 554.71C501.24 570.11 463.2 613.32 465.79 679.51C468.96 760.67 483.58 772.51 484.79 774.51C493.82 775.632 502.902 776.29 512 776.479C658.36 776.479 777 658.07 777 512C776.979 473.426 768.514 435.324 752.198 400.371C735.883 365.417 712.114 334.459 682.56 309.67C678.34 317.32 670.95 325.11 658.19 333.33C636.85 347.07 598.48 345.28 598.48 345.28C598.48 345.28 608.86 317.75 627.65 300.87C634.364 294.768 642.167 289.985 650.65 286.77C632.054 275.331 612.116 266.232 591.29 259.68C593.12 275.28 589.13 293.53 574.47 315.49C550.4 351.55 510.62 359.72 510.62 359.72C510.62 359.72 499.87 333.6 523.85 290.47C532.85 274.31 545.49 260.47 558.44 251.64C543.111 248.907 527.571 247.528 512 247.52ZM446.25 282.23C464.86 292.72 476.36 319.47 474.14 357.31C471.92 395.15 456.45 435.38 436.49 447.72C417.86 437.29 407.02 398.38 409.24 360.52C411.46 322.66 426.24 294.52 446.24 282.23H446.25ZM579.8 374.57C579.8 374.57 589.34 413.57 553.93 453.49C518.83 493.05 467.56 498.41 467.56 498.41C467.56 498.41 469.9 448.12 501.36 410.72C535.88 369.69 579.79 374.57 579.79 374.57H579.8ZM727.17 381.35C727.17 381.35 725.07 410.35 680.86 429.8C644.45 445.8 600.42 434.32 600.42 434.32C600.42 434.32 621.84 395.26 656.75 381.7C695.33 366.7 727.17 381.35 727.17 381.35ZM671.88 488C671.88 488 665.49 519.2 610.73 536C561.95 551 522.73 528.76 522.73 528.76C522.73 528.76 536.09 491.1 592.16 477.95C642.16 466.24 671.89 487.95 671.89 487.95L671.88 488Z" fill="white"/>
</g>
<defs>
<clipPath id="clip0_2_1977">
<rect width="1024" height="1024" fill="white"/>
</clipPath>
</defs>
</svg>

<svg xmlns="http://www.w3.org/2000/svg" viewBox="0 0 1024 1024">
   <circle cx="512" cy="512" r="512" style="fill:#00c4b2"/>
   <path d="M512 247.52a265.34 265.34 0 0 0-155.86 51.75c16.77 33.32 25 73.51 16.47 92.53-17.34-.76-41.57-24.2-59-53.4a264.48 264.48 0 0 0-33.86 47.75c18.65-1.08 41.72 8 64.31 28.08 26.78 23.78 46.68 57.42 42.85 77.5-19.94 5.79-56-10.22-82.82-34-19.74-17.51-31-36.25-34.09-52.92a263.39 263.39 0 0 0 135.25 349c15.24-29.91 15.25-141 8.56-166.53-11.53-44-29.09-53.67-58.45-70.09 19.93-7 51.17 5.52 51.17 5.52s9.83-26.91 36-37.08c-22.23 51.15 7.28 117.14 7.28 117.14s39.32-46.12 37-82.74c17.84 14.88 13.62 36.19 13.62 36.19s15.49-8.16 38.59-1.51c-37.78 15.4-75.82 58.61-73.23 124.8 3.17 81.16 17.79 93 19 95a265.51 265.51 0 0 0 27.21 1.97c146.36 0 265-118.41 265-264.48a264.27 264.27 0 0 0-94.44-202.33c-4.22 7.65-11.61 15.44-24.37 23.66-21.34 13.74-59.71 11.95-59.71 11.95s10.38-27.53 29.17-44.41a72.29 72.29 0 0 1 23-14.1 265.25 265.25 0 0 0-59.36-27.09c1.83 15.6-2.16 33.85-16.82 55.81-24.07 36.06-63.85 44.23-63.85 44.23s-10.75-26.12 13.23-69.25c9-16.16 21.64-30 34.59-38.83a265.5 265.5 0 0 0-46.44-4.12Zm-65.75 34.71c18.61 10.49 30.11 37.24 27.89 75.08s-17.69 78.07-37.65 90.41c-18.63-10.43-29.47-49.34-27.25-87.2s17-66 37-78.29Zm133.55 92.34s9.54 39-25.87 78.92c-35.1 39.56-86.37 44.92-86.37 44.92s2.34-50.29 33.8-87.69c34.52-41.03 78.43-36.15 78.43-36.15Zm147.37 6.78s-2.1 29-46.31 48.45c-36.41 16-80.44 4.52-80.44 4.52s21.42-39.06 56.33-52.62c38.58-15 70.42-.35 70.42-.35ZM671.88 488s-6.39 31.2-61.15 48c-48.78 15-88-7.24-88-7.24s13.36-37.66 69.43-50.81c50-11.71 79.73 10 79.73 10Z" style="fill:#fff"/>
</svg>
